X:698
T:Tonada (CT 350)
R:Tonada
C:Tradicional
S:Msica Tradicional Asturiana, (C) Tello & Tito. Asturies, 2001.
S:http://pagina.de/MusTradAst <telloytito@asturies.org>
N:Cancin de empleo indeterminado, transcrita en Uviu.
N:Suele cantarse con acompaamiento de gaita.
A:Asturies
O:Uviu
Z:Cancioneru de Torner 350
M:3/4
L:1/8
Q:1/4=72
K:G
DG
|GG-G2 FG|AA-A/4_B/4A/4G/4A-A2|(3A_Bc d2 dd|dd-(d2-d/4c/4B/4A/4 G/>A/|B2) zc dd|
(d>cB)z dd|(e/{de}dc/ B) c/A/ (G>A|B)B-(3B{d}cB (A3/2B/8A/8G/8F/8|G)G-G2||
W:Tuve amores en La Oscura
W:y tambin los tuve en Lada
W:pero los de San Andrs
W:son los que me lleven l'alma.
W:
